z-union/img/icons/youtube.svg

<svg width="43" height="30" viewBox="0 0 43 30" fill="none" xmlns="http://www.w3.org/2000/svg">
<path d="M41.9688 4.6875C42.125 5.3125 42.2552 6.09375 42.3594 7.03125C42.5156 7.96875 42.6198 8.90625 42.6719 9.84375C42.724 10.7292 42.75 11.5625 42.75 12.3438C42.8021 13.125 42.8281 13.776 42.8281 14.2969V15C42.8281 19.6875 42.5417 23.151 41.9688 25.3906C41.7083 26.276 41.2396 27.0573 40.5625 27.7344C39.8854 28.4115 39.0781 28.8802 38.1406 29.1406C37.151 29.401 35.276 29.6094 32.5156 29.7656C29.7552 29.8698 27.2292 29.9479 24.9375 30H21.5C12.5938 30 7.04688 29.7135 4.85938 29.1406C2.82812 28.5677 1.55208 27.3177 1.03125 25.3906C0.770833 24.401 0.5625 23.0469 0.40625 21.3281C0.302083 19.5573 0.223958 18.0729 0.171875 16.875V15C0.171875 10.3646 0.458333 6.92708 1.03125 4.6875C1.29167 3.75 1.76042 2.94271 2.4375 2.26562C3.11458 1.58854 3.92188 1.11979 4.85938 0.859375C5.84896 0.598958 7.72396 0.416667 10.4844 0.3125C13.2448 0.15625 15.7708 0.0520833 18.0625 0H21.5C30.4062 0 35.9531 0.286458 38.1406 0.859375C39.0781 1.11979 39.8854 1.58854 40.5625 2.26562C41.2396 2.94271 41.7083 3.75 41.9688 4.6875ZM17.125 21.4062L28.2969 15L17.125 8.67188V21.4062Z" fill="white"/>
</svg>

<svg width="43" height="30" fill="none" xmlns="http://www.w3.org/2000/svg"><path d="M41.969 4.688c.156.625.286 1.406.39 2.343.157.938.26 1.875.313 2.813.052.885.078 1.719.078 2.5.052.781.078 1.432.078 1.953V15c0 4.688-.286 8.151-.86 10.39a5.45 5.45 0 01-1.406 2.344 5.415 5.415 0 01-2.421 1.407c-.99.26-2.865.468-5.625.625-2.76.104-5.287.182-7.578.234H21.5c-8.906 0-14.453-.287-16.64-.86-2.032-.572-3.308-1.822-3.829-3.75-.26-.989-.468-2.343-.625-4.062a299.67 299.67 0 01-.234-4.453V15c0-4.635.286-8.073.86-10.313a5.41 5.41 0 011.405-2.421A5.415 5.415 0 014.86.859C5.85.6 7.724.417 10.484.313c2.76-.157 5.287-.26 7.579-.313H21.5c8.906 0 14.453.286 16.64.86a5.41 5.41 0 012.422 1.406 5.416 5.416 0 011.407 2.421zM17.125 21.405L28.297 15 17.125 8.672v12.734z" fill="#fff"/></svg>
